X:2632
T:Piobaireachd Dithis Variation                     
O:Kevin Fraser
Q:1/4=78
K:HP
M:10/16
L:1/16
%%MIDI gracedivider 4
%%MIDI gchord
%%MIDI beatstring 
[| A5 B5 | c5 d5 |  e5 f5 | g5 a5 |]
w: Theme     
w:        
T: Dithis Variation Scale
[| {g}A5{e}A {g}B5{e}A |  {g}c5{e}A  {g}d5{e}A |  {g}e5{g}A  {g}f5{g}A |  {a}g5{a}A  a5A |]
w: Dithis    
W: G grace from E/F    |   Thumb on/from G    


